communes/4031.svg

<?xml version="1.0" encoding="UTF-8"?>
<!DOCTYPE svg  PUBLIC '-//W3C//DTD SVG 1.0//EN'  'http://www.w3.org/TR/2001/REC-SVG-20010904/DTD/svg10.dtd'>
<svg width="687" height="768" version="1.0" viewBox="-2.3812 -2.3812 84.138 94.05" xmlns="http://www.w3.org/2000/svg">
<defs>
<clipPath id="b">
<path d="m354.48 510.24h63.71v-71.63h-63.71v71.63z"/>
</clipPath>
<clipPath id="a">
<path d="m354.48 510.24h63.71v-71.63h-63.71v71.63z"/>
</clipPath>
</defs>
<g transform="translate(-335.31 -487.72)">
<g transform="matrix(1.25 0 0 1.25 -107.92 -60.657)">
<g clip-path="url(#b)">
<path d="m354.59 438.7h63.5v39.69 1.63l-0.17 1.62-0.17 1.56-0.28 1.57-0.39 1.57-0.4 1.51-0.5 1.46-0.56 1.45-0.67 1.4-0.67 1.34-0.78 1.34-0.79 1.29-0.89 1.23-0.96 1.23-1.01 1.13-1.05 1.11-1.07 1.07-1.18 0.95-1.17 0.95-1.29 0.9-1.29 0.84-1.29 0.73-1.4 0.72-1.4 0.62-1.45 0.55-1.46 0.51-1.51 0.44-1.52 0.34-1.56 0.28-1.62 0.22-1.57 0.12-1.68 0.06-1.63-0.06-1.62-0.12-1.57-0.22-1.56-0.28-1.52-0.34-1.51-0.44-1.51-0.51-1.4-0.55-1.4-0.62-1.4-0.72-1.34-0.73-1.29-0.84-1.23-0.9-2.36-1.9-1.05-1.07-1.07-1.11-1.01-1.13-0.95-1.23-0.9-1.23-0.79-1.29-0.78-1.34-0.72-1.34-0.62-1.4-0.56-1.45-0.5-1.46-0.45-1.51-0.34-1.57-0.28-1.57-0.22-1.56-0.12-1.62-0.05-1.63v-39.69z" fill-rule="evenodd"/>
</g>
<g clip-path="url(#a)">
<path d="m413.33 492.22v0l-0.45 0.89-0.51 0.84-1.11 1.68-1.18 1.62-1.35 1.57-1.39 1.4-1.46 1.39-1.62 1.24-1.63 1.12-0.89 0.55-0.84 0.52-0.89 0.44-0.96 0.45-0.9 0.39-0.95 0.39-0.95 0.34-1.01 0.33-0.95 0.28-1 0.29-1.02 0.21-1.06 0.17-1.01 0.17-1.06 0.11-1.07 0.06-1.06 0.06v-33.69 0l0.67 0.11 0.68 0.21 0.66 0.29 0.73 0.34v0l0.68 0.39 0.56 0.44 1 0.9 0.4 0.5 0.38 0.51 0.68 0.95 0.73 1 0.34 0.51 0.44 0.45 0.45 0.44 0.51 0.46 0.55 0.44 0.68 0.4v0l0.73 0.39 0.66 0.22 0.68 0.22 0.61 0.17 0.62 0.05 0.61 0.06 1.24 0.12 1.17 0.05 0.62 0.06 0.62 0.05 0.61 0.17 0.67 0.17 0.68 0.28 0.67 0.33v0l0.55 0.34 0.51 0.39 0.45 0.34 0.45 0.39 0.72 0.84 0.67 0.84 1.29 1.73 0.62 0.84 0.73 0.79v0z" fill="#f00000" fill-rule="evenodd" stroke="#f00000" stroke-linecap="round" stroke-linejoin="round" stroke-miterlimit="10" stroke-width=".12"/>
<path d="m373.8 495.86v0l-0.22-0.29-0.12-0.22-0.06-0.4-0.05-0.5 0.05-33.97v0h7.62v0h0.44l0.46 0.11 0.61 0.23v0-4.76 0l-0.73 0.23-0.84 0.22h-7.72v0-4.37-4.53 0l-0.06 0.28v0-0.06l0.06-0.5 0.05-0.45 0.11-0.39 0.18-0.39 0.11-0.17 0.11-0.11h-5.32v0l0.22 0.22 0.17 0.23 0.05 0.16 0.06 0.17 0.06 0.45 0.05 0.5v0 8.96h-8v0l-0.23 0.05h-0.22l-0.56-0.16-0.67-0.23v4.82 0l0.27-0.17 0.34-0.17 0.39-0.17 0.34-0.06v0h8.12v34.03 0 0.5l-0.11 0.34-0.11 0.28-0.23 0.29h5.38z" fill="#f00000" fill-rule="evenodd" stroke="#f00000" stroke-linecap="round" stroke-linejoin="round" stroke-miterlimit="10" stroke-width=".12"/>
<path d="m391.27 452.14v0l-0.62-0.33-0.56-0.23-0.5-0.17-0.57-0.17-1-0.16-1.01-0.11v-10.86h29.67v29.38 0l-0.44-0.22v0l-0.67-0.45-0.62-0.39-0.5-0.45-0.45-0.44-0.39-0.51-0.4-0.51-0.66-0.95-0.68-1-0.39-0.46-0.39-0.5-0.5-0.44-0.51-0.45-0.56-0.45-0.67-0.39v0l-0.73-0.34-0.67-0.27-0.62-0.23-0.67-0.11-0.61-0.11-0.57-0.06-1.22-0.06-1.18-0.05-0.62-0.06-0.61-0.11-0.68-0.17-0.66-0.16-0.68-0.29-0.68-0.33v0l-0.66-0.45-0.62-0.39-0.51-0.45-0.44-0.5-0.4-0.45-0.39-0.5-0.67-0.96-0.72-1-0.4-0.5-0.39-0.45-0.45-0.45-0.5-0.45-0.62-0.44-0.61-0.4v0z" fill="#f00000" fill-rule="evenodd" stroke="#f00000" stroke-linecap="round" stroke-linejoin="round" stroke-miterlimit="10" stroke-width=".12"/>
<path d="m361.42 455.83-0.39-0.05-0.45-0.06-0.72-0.22-0.96-0.39v7l0.23-0.23 0.28-0.11 0.27-0.12 0.29-0.11 0.61-0.11h0.67 7l0.06 5.71v10.92l-0.06 15.39v0.61 0.57l-0.11 0.5-0.11 0.44-0.17 0.45-0.16 0.28-0.18 0.28-0.16 0.17h7.56l-0.18-0.45-0.32-0.78-0.18-0.45-0.05-0.56-0.06-0.51v-0.55-32.13h6.1l0.91 0.11 1 0.17 0.84 0.23 0.28 0.05 0.17 0.11v-3.69l-0.06-3.64-0.78 0.45-0.67 0.34-0.4 0.16-0.33 0.11-0.39 0.06-0.5 0.05h-6.17v-8.39-0.17l0.06-0.34 0.11-0.5 0.23-0.61 0.21-0.45 0.18-0.22h-7.45l0.05 0.11 0.12 0.16 0.28 0.46 0.28 0.66 0.05 0.34 0.06 0.34v8.56l-6.89 0.05zm24.31 52.9-1.52-0.12-1.51-0.11-1.51-0.23-1.46-0.32-1.45-0.34-1.4-0.45-1.35-0.51-1.4-0.56-1.28-0.61-1.29-0.67-1.23-0.73-1.24-0.84-1.17-0.84-1.12-0.9-1.07-0.94-1-1.01-1.01-1.07-0.9-1.12-0.89-1.12-0.84-1.17-0.79-1.23-0.73-1.29-0.61-1.28-0.62-1.35-0.5-1.34-0.5-1.4-0.4-1.46-0.33-1.45-0.28-1.46-0.17-1.51-0.11-1.51-0.06-1.57v-38.11h29.74v68.62z" fill="#fff" fill-rule="evenodd"/>
<path d="m390.37 474.86-0.89-0.39-0.84-0.33-0.84-0.17-0.79-0.17v-21.66l0.84 0.11 0.9 0.23 0.89 0.28 1.01 0.5 0.62 0.39 0.61 0.39 0.51 0.45 0.44 0.5 0.4 0.46 0.38 0.5 0.73 0.95 0.68 1 0.39 0.51 0.39 0.45 0.45 0.5 0.5 0.45 0.62 0.39 0.67 0.39 0.67 0.4 0.67 0.28 0.68 0.16 0.67 0.17 0.62 0.11 0.61 0.06 1.18 0.06 1.23 0.05 0.55 0.05 0.63 0.12 0.66 0.11 0.62 0.22 0.68 0.23 0.72 0.39 0.68 0.39 0.55 0.45 0.5 0.45 0.52 0.45 0.38 0.44 0.4 0.5 0.67 1.02 0.67 0.95 0.39 0.5 0.4 0.44 0.44 0.51 0.51 0.45 0.61 0.39 0.67 0.39 0.56 0.34 0.5 0.22v7.33l-0.05 1.73-0.11 1.69-0.22 1.62-0.34 1.62-0.39 1.57-0.45 1.57-0.56 1.5-0.67 1.52-0.79-0.79-0.67-0.83-0.56-0.84-0.61-0.84-0.62-0.84-0.73-0.79-0.39-0.39-0.45-0.39-0.56-0.34-0.56-0.38-0.67-0.34-0.67-0.23-0.67-0.22-0.62-0.12-0.61-0.11-0.62-0.05-1.17-0.06-1.24-0.05-0.62-0.11-0.61-0.06-0.62-0.17-0.66-0.17-0.68-0.27-0.73-0.4-0.67-0.39-0.56-0.45-0.51-0.44-0.44-0.45-0.45-0.45-0.34-0.5-0.72-1.01-0.67-0.95-0.4-0.5-0.39-0.46-0.5-0.5-0.5-0.45-0.57-0.39-0.67-0.45z" fill="#fff"/>
</g>
</g>
</g>
</svg>

<?xml version="1.0" encoding="UTF-8" standalone="no"?>
<!DOCTYPE svg PUBLIC "-//W3C//DTD SVG 1.0//EN" "http://www.w3.org/TR/2001/REC-SVG-20010904/DTD/svg10.dtd">
<!-- Created with Inkscape (http://www.inkscape.org/) by Marsupilami -->
<svg
   xmlns:svg="http://www.w3.org/2000/svg"
   xmlns="http://www.w3.org/2000/svg"
   version="1.0"
   width="687"
   height="768"
   viewBox="-2.38125 -2.38125 84.1375 94.049998"
   id="svg4217">
  <defs
     id="defs4219">
    <clipPath
       id="clipPath3086">
      <path
         d="M 354.48,510.24 L 418.19,510.24 L 418.19,438.61 L 354.48,438.61 L 354.48,510.24 z"
         id="path3088" />
    </clipPath>
    <clipPath
       id="clipPath3098">
      <path
         d="M 354.48,510.24 L 418.19,510.24 L 418.19,438.61 L 354.48,438.61 L 354.48,510.24 z"
         id="path3100" />
    </clipPath>
  </defs>
  <g
     transform="translate(-335.3125,-487.71843)"
     id="layer1">
    <g
       transform="matrix(1.25,0,0,1.25,-107.925,-60.656567)"
       id="g3082">
      <g
         clip-path="url(#clipPath3086)"
         id="g3084">
        <g
           id="g3090">
          <path
             d="M 354.59,438.7 L 418.09,438.7 L 418.09,478.39 L 418.09,478.39 L 418.09,480.02 L 417.92,481.64 L 417.75,483.2 L 417.47,484.77 L 417.08,486.34 L 416.68,487.85 L 416.18,489.31 L 415.62,490.76 L 414.95,492.16 L 414.28,493.5 L 413.5,494.84 L 412.71,496.13 L 411.82,497.36 L 410.86,498.59 L 409.85,499.72 L 408.8,500.83 L 407.73,501.9 L 406.55,502.85 L 405.38,503.8 L 404.09,504.7 L 402.8,505.54 L 401.51,506.27 L 400.11,506.99 L 398.71,507.61 L 397.26,508.16 L 395.8,508.67 L 394.29,509.11 L 392.77,509.45 L 391.21,509.73 L 389.59,509.95 L 388.02,510.07 L 386.34,510.13 L 386.34,510.13 L 384.71,510.07 L 383.09,509.95 L 381.52,509.73 L 379.96,509.45 L 378.44,509.11 L 376.93,508.67 L 375.42,508.16 L 374.02,507.61 L 372.62,506.99 L 371.22,506.27 L 369.88,505.54 L 368.59,504.7 L 367.36,503.8 L 366.18,502.85 L 365,501.9 L 363.95,500.83 L 362.88,499.72 L 361.87,498.59 L 360.92,497.36 L 360.02,496.13 L 359.23,494.84 L 358.45,493.5 L 357.73,492.16 L 357.11,490.76 L 356.55,489.31 L 356.05,487.85 L 355.6,486.34 L 355.26,484.77 L 354.98,483.2 L 354.76,481.64 L 354.64,480.02 L 354.59,478.39 L 354.59,438.7 z"
             id="path3092"
             style="fill:#000000;fill-opacity:1;fill-rule:evenodd;stroke:none" />
        </g>
      </g>
    </g>
    <g
       transform="matrix(1.25,0,0,1.25,-107.925,-60.656567)"
       id="g3094">
      <g
         clip-path="url(#clipPath3098)"
         id="g3096">
        <path
           d="M 413.33,492.22 L 413.33,492.22 L 412.88,493.11 L 412.37,493.95 L 411.26,495.63 L 410.08,497.25 L 408.73,498.82 L 407.34,500.22 L 405.88,501.61 L 404.26,502.85 L 402.63,503.97 L 401.74,504.52 L 400.9,505.04 L 400.01,505.48 L 399.05,505.93 L 398.15,506.32 L 397.2,506.71 L 396.25,507.05 L 395.24,507.38 L 394.29,507.66 L 393.29,507.95 L 392.27,508.16 L 391.21,508.33 L 390.2,508.5 L 389.14,508.61 L 388.07,508.67 L 387.01,508.73 L 387.01,475.04 L 387.01,475.04 L 387.68,475.15 L 388.36,475.36 L 389.02,475.65 L 389.75,475.99 L 389.75,475.99 L 390.43,476.38 L 390.99,476.82 L 391.49,477.27 L 391.99,477.72 L 392.39,478.22 L 392.77,478.73 L 393.45,479.68 L 394.18,480.68 L 394.52,481.19 L 394.96,481.64 L 395.41,482.08 L 395.92,482.54 L 396.47,482.98 L 397.15,483.38 L 397.15,483.38 L 397.88,483.77 L 398.54,483.99 L 399.22,484.21 L 399.83,484.38 L 400.45,484.43 L 401.06,484.49 L 402.3,484.61 L 403.47,484.66 L 404.09,484.72 L 404.71,484.77 L 405.32,484.94 L 405.99,485.11 L 406.67,485.39 L 407.34,485.72 L 407.34,485.72 L 407.89,486.06 L 408.4,486.45 L 408.85,486.79 L 409.3,487.18 L 410.02,488.02 L 410.69,488.86 L 411.98,490.59 L 412.6,491.43 L 413.33,492.22 L 413.33,492.22 z"
           id="path3102"
           style="fill:#f00000;fill-opacity:1;fill-rule:evenodd;stroke:#f00000;stroke-width:0.12;stroke-linecap:round;stroke-linejoin:round;stroke-miterlimit:10;stroke-dasharray:none;stroke-opacity:1" />
        <path
           d="M 373.8,495.86 L 373.8,495.86 L 373.58,495.57 L 373.46,495.35 L 373.4,494.95 L 373.35,494.45 L 373.4,460.48 L 373.4,460.48 L 381.02,460.48 L 381.02,460.48 L 381.46,460.48 L 381.92,460.59 L 382.53,460.82 L 382.53,460.82 L 382.53,456.06 L 382.53,456.06 L 381.8,456.29 L 380.96,456.51 L 373.24,456.51 L 373.24,456.51 L 373.24,452.14 L 373.24,447.61 L 373.24,447.61 L 373.18,447.89 L 373.18,447.89 L 373.18,447.83 L 373.24,447.33 L 373.29,446.88 L 373.4,446.49 L 373.58,446.1 L 373.69,445.93 L 373.8,445.82 L 368.48,445.82 L 368.48,445.82 L 368.7,446.04 L 368.87,446.27 L 368.92,446.43 L 368.98,446.6 L 369.04,447.05 L 369.09,447.55 L 369.09,447.55 L 369.09,456.51 L 361.09,456.51 L 361.09,456.51 L 360.86,456.56 L 360.64,456.56 L 360.08,456.4 L 359.41,456.17 L 359.41,460.99 L 359.41,460.99 L 359.68,460.82 L 360.02,460.65 L 360.41,460.48 L 360.75,460.42 L 360.75,460.42 L 368.87,460.42 L 368.87,494.45 L 368.87,494.45 L 368.87,494.95 L 368.76,495.29 L 368.65,495.57 L 368.42,495.86 L 373.8,495.86 z"
           id="path3104"
           style="fill:#f00000;fill-opacity:1;fill-rule:evenodd;stroke:#f00000;stroke-width:0.12;stroke-linecap:round;stroke-linejoin:round;stroke-miterlimit:10;stroke-dasharray:none;stroke-opacity:1" />
        <path
           d="M 391.27,452.14 L 391.27,452.14 L 390.65,451.81 L 390.09,451.58 L 389.59,451.41 L 389.02,451.24 L 388.02,451.08 L 387.01,450.97 L 387.01,440.11 L 416.68,440.11 L 416.68,469.49 L 416.68,469.49 L 416.24,469.27 L 416.24,469.27 L 415.57,468.82 L 414.95,468.43 L 414.45,467.98 L 414,467.54 L 413.61,467.03 L 413.21,466.52 L 412.55,465.57 L 411.87,464.57 L 411.48,464.11 L 411.09,463.61 L 410.59,463.17 L 410.08,462.72 L 409.52,462.27 L 408.85,461.88 L 408.85,461.88 L 408.12,461.54 L 407.45,461.27 L 406.83,461.04 L 406.16,460.93 L 405.55,460.82 L 404.98,460.76 L 403.76,460.7 L 402.58,460.65 L 401.96,460.59 L 401.35,460.48 L 400.67,460.31 L 400.01,460.15 L 399.33,459.86 L 398.65,459.53 L 398.65,459.53 L 397.99,459.08 L 397.37,458.69 L 396.86,458.24 L 396.42,457.74 L 396.02,457.29 L 395.63,456.79 L 394.96,455.83 L 394.24,454.83 L 393.84,454.33 L 393.45,453.88 L 393,453.43 L 392.5,452.98 L 391.88,452.54 L 391.27,452.14 L 391.27,452.14 z"
           id="path3106"
           style="fill:#f00000;fill-opacity:1;fill-rule:evenodd;stroke:#f00000;stroke-width:0.12;stroke-linecap:round;stroke-linejoin:round;stroke-miterlimit:10;stroke-dasharray:none;stroke-opacity:1" />
        <path
           d="M 361.42,455.83 L 361.42,455.83 L 361.03,455.78 L 360.58,455.72 L 359.86,455.5 L 358.9,455.11 L 358.9,455.11 L 358.9,462.11 L 358.9,462.11 L 359.13,461.88 L 359.41,461.77 L 359.68,461.65 L 359.97,461.54 L 360.58,461.43 L 361.25,461.43 L 368.25,461.43 L 368.25,461.43 L 368.31,467.14 L 368.31,478.06 L 368.25,493.45 L 368.25,493.45 L 368.25,494.06 L 368.25,494.63 L 368.14,495.13 L 368.03,495.57 L 367.86,496.02 L 367.7,496.3 L 367.52,496.58 L 367.36,496.75 L 374.92,496.75 L 374.92,496.75 L 374.74,496.3 L 374.42,495.52 L 374.24,495.07 L 374.19,494.51 L 374.13,494 L 374.13,493.45 L 374.13,493.45 L 374.13,461.32 L 380.23,461.32 L 380.23,461.32 L 381.14,461.43 L 382.14,461.6 L 382.98,461.83 L 383.26,461.88 L 383.43,461.99 L 383.43,461.99 L 383.43,458.3 L 383.37,454.66 L 383.37,454.66 L 382.59,455.11 L 381.92,455.45 L 381.52,455.61 L 381.19,455.72 L 380.8,455.78 L 380.3,455.83 L 374.13,455.83 L 374.13,447.44 L 374.13,447.44 L 374.13,447.27 L 374.19,446.93 L 374.3,446.43 L 374.53,445.82 L 374.53,445.82 L 374.74,445.37 L 374.92,445.15 L 367.47,445.15 L 367.47,445.15 L 367.52,445.26 L 367.64,445.42 L 367.92,445.88 L 367.92,445.88 L 368.2,446.54 L 368.25,446.88 L 368.31,447.22 L 368.31,455.78 L 368.31,455.78 L 361.42,455.83 L 361.42,455.83 z M 385.73,508.73 L 385.73,508.73 L 384.21,508.61 L 382.7,508.5 L 381.19,508.27 L 379.73,507.95 L 378.28,507.61 L 376.88,507.16 L 375.53,506.65 L 374.13,506.09 L 372.85,505.48 L 371.56,504.81 L 370.33,504.08 L 369.09,503.24 L 367.92,502.4 L 366.8,501.5 L 365.73,500.56 L 364.73,499.55 L 363.72,498.48 L 362.82,497.36 L 361.93,496.24 L 361.09,495.07 L 360.3,493.84 L 359.57,492.55 L 358.96,491.27 L 358.34,489.92 L 357.84,488.58 L 357.34,487.18 L 356.94,485.72 L 356.61,484.27 L 356.33,482.81 L 356.16,481.3 L 356.05,479.79 L 355.99,478.22 L 355.99,440.11 L 385.73,440.11 L 385.73,508.73 z"
           id="path3108"
           style="fill:#ffffff;fill-opacity:1;fill-rule:evenodd;stroke:none" />
        <path
           d="M 390.37,474.86 L 390.37,474.86 L 389.48,474.47 L 388.64,474.14 L 387.8,473.97 L 387.01,473.8 L 387.01,452.14 L 387.01,452.14 L 387.85,452.25 L 388.75,452.48 L 389.64,452.76 L 390.65,453.26 L 390.65,453.26 L 391.27,453.65 L 391.88,454.04 L 392.39,454.49 L 392.83,454.99 L 393.23,455.45 L 393.61,455.95 L 394.34,456.9 L 395.02,457.9 L 395.41,458.41 L 395.8,458.86 L 396.25,459.36 L 396.75,459.81 L 397.37,460.2 L 398.04,460.59 L 398.04,460.59 L 398.71,460.99 L 399.38,461.27 L 400.06,461.43 L 400.73,461.6 L 401.35,461.71 L 401.96,461.77 L 403.14,461.83 L 404.37,461.88 L 404.92,461.93 L 405.55,462.05 L 406.21,462.16 L 406.83,462.38 L 407.51,462.61 L 408.23,463 L 408.23,463 L 408.91,463.39 L 409.46,463.84 L 409.96,464.29 L 410.48,464.74 L 410.86,465.18 L 411.26,465.68 L 411.93,466.7 L 412.6,467.65 L 412.99,468.15 L 413.39,468.59 L 413.83,469.1 L 414.34,469.55 L 414.95,469.94 L 415.62,470.33 L 415.62,470.33 L 416.18,470.67 L 416.68,470.89 L 416.68,478.22 L 416.68,478.22 L 416.63,479.95 L 416.52,481.64 L 416.3,483.26 L 415.96,484.88 L 415.57,486.45 L 415.12,488.02 L 414.56,489.52 L 413.89,491.04 L 413.89,491.04 L 413.5,490.65 L 413.1,490.25 L 412.43,489.42 L 411.87,488.58 L 411.26,487.74 L 410.64,486.9 L 409.91,486.11 L 409.52,485.72 L 409.07,485.33 L 408.51,484.99 L 407.95,484.61 L 407.95,484.61 L 407.28,484.27 L 406.61,484.04 L 405.94,483.82 L 405.32,483.7 L 404.71,483.59 L 404.09,483.54 L 402.92,483.48 L 401.68,483.43 L 401.06,483.32 L 400.45,483.26 L 399.83,483.09 L 399.17,482.92 L 398.49,482.65 L 397.76,482.25 L 397.76,482.25 L 397.09,481.86 L 396.53,481.41 L 396.02,480.97 L 395.58,480.52 L 395.13,480.07 L 394.79,479.57 L 394.07,478.56 L 393.4,477.61 L 393,477.11 L 392.61,476.65 L 392.11,476.15 L 391.61,475.7 L 391.04,475.31 L 390.37,474.86 L 390.37,474.86 z"
           id="path3110"
           style="fill:#ffffff;fill-opacity:1;fill-rule:nonzero;stroke:none" />
      </g>
    </g>
  </g>
</svg>
<!-- version: 20090314, original size: 79.375 89.287498, border: 3% -->
